X:1
T:Devil in the Kitchen
M:C
L:1/8
Q:80
C:Trad.
S:Strathspey
K:HP
[| {gef}e3/2A/2{gAGAG}A2{gef}e3/2A/2{g}f/2e/2d | \
{gef}e3/2A/2{gAGAG}A2{gf}g2{a}f/2a3/2 | \
{ef}e3/2A/2{gAGAG}A2{gef}e3/2A/2{g}f/2e/2d |
{gBd}B/2{e}G3/2{dGcG}B2{gf}g2{a}f/2a3/2 | \
{ef}e3/2A/2{gAGAG}A2{gef}e3/2A/2{g}f/2e/2d | \
{gef}e3/2A/2{gAGAG}A2{gf}g2{a}f/2a3/2 |
{ef}e3/2A/2{gAGAG}A2{gef}e3/2A/2{g}f/2e/2d | \
{gBd}B/2{e}G3/2{dGcG}B2{gf}g2{a}f3/2g/2|] [ | \
{ag}a3/2A/2{gAGAG}A2{gef}e3/2A/2{gAGAG}A2 |
{ag}a3/2A/2{gAGAG}A2{gf}g2{a}f3/2g/2 | \
{ag}a3/2A/2{gAGAG}A2{gef}e3/2A/2{g}f/2e/2d | \
{gBd}B/2{e}G3/2{dGcG}B2{gf}g2{a}f3/2g/2 |
{ag}a3/2A/2{gAGAG}A2{gef}e3/2A/2{gAGAG}A2 | \
{ag}a3/2A/2{gAGAG}A2{gf}g2{a}f3/2g/2 | \
a/2g/2f{gf}g3/2e/2{g}f/2af/2{gef}e3/2c/2 |
{g}B3/2c/2{Gdc}d3/2e/2{gf}g2{a}f/2a3/2|]
